Sources/FrostedUI/Resources/Icons.xcassets/twitch24.imageset/twitch-24.svg

<svg width="24" height="24" viewBox="0 0 24 24" fill="none" xmlns="http://www.w3.org/2000/svg" data-fui-icon="true">
  <path
    d="M3.36391 2L2 5.47834V19.39H6.99867V22H9.72766L12.4541 19.39H16.5447L22 14.1748V2H3.36391ZM5.18102 3.73805H20.182V13.3035L16.9993 16.3474H12L9.27445 18.9539V16.3474H5.18102V3.73805ZM10.1816 12.435H12V7.21826H10.1816V12.435ZM15.1814 12.435H16.9994V7.21826H15.1814V12.435Z"
    fill="currentColor"
  />
</svg>

<svg xmlns="http://www.w3.org/2000/svg" width="24" height="24" fill="none" data-fui-icon="true" viewBox="0 0 24 24"><path fill="currentColor" d="M3.364 2 2 5.478V19.39h4.999V22h2.729l2.726-2.61h4.09L22 14.175V2zM5.18 3.738h15.001v9.566l-3.183 3.043H12l-2.726 2.607v-2.607H5.181zm5 8.697H12V7.218h-1.818zm5 0H17V7.218h-1.818z"/></svg>
